X:1
T: The First of March
C:
R:Reel
Q: 232
K:Em
M:4/4
L:1/8
ge|d2 BG AG EF|G2 dG Bd ge|d2 BG AG EA|Bd gd ef ge|
d2 BG AG EF|G2 dG Bd ge|d2 BG AG EA|Bd gd e2 ef|
|:g2 gf gb ag|fd ad fd fa|g2 gf gb af|gf ed Be ef|
g2 gf gb ag|fd ad fd fa|((3gab) ag ((3fga) fe|1BA ((3Bcd) ef ef:|2BA Bcd ef ge|
d2 BG AG EF|G2 dG Bd ge|d2 BG AG EA|Bd gd ef ge|
d2 BG AG EF|G2 dG Bd ge|d2 BG AG EA|Bd gd e2||
